X: 117
T:Volunteer, The
M:C|
L:1/8
R:Reel
K:G
GE[|:DEGA BG~G2|AGEF G2AB|c2cB cBAG|E2EE E2GE|!
DEGA BG~G2|AGEF G2AB|c2cB cBAG|1D2DD D2GE:|2D2DD D2Bc|!
|:d3B c3A|B3G A2Bc|dBcA BGAG|E2EE E2Bc|!
d3B c3A|B3G A2Bc|dBcA BGAG|1D2DD D2Bc:|2D2DD D2GE|]!
